packages/amis-ui/src/icons/slider-handle-icon.svg

<?xml version="1.0" encoding="UTF-8"?>
<svg  viewBox="0 0 6 4" version="1.1" xmlns="http://www.w3.org/2000/svg" xmlns:xlink="http://www.w3.org/1999/xlink">
    <g  stroke="none" stroke-width="1" fill="none" fill-rule="evenodd">
      <path d="M1.5,2.28847549e-17 L1.5,4 L0.5,4 L0.5,-2.22044605e-16 L1.5,2.28847549e-17 Z M3.5,2.28847549e-17 L3.5,4 L2.5,4 L2.5,-2.22044605e-16 L3.5,2.28847549e-17 Z M5.5,2.28847549e-17 L5.5,4 L4.5,4 L4.5,-2.22044605e-16 L5.5,2.28847549e-17 Z"  fill="transparent"></path>
    </g>
</svg>

<svg viewBox="0 0 6 4" xmlns="http://www.w3.org/2000/svg"><path d="M1.5 0v4h-1V0h1Zm2 0v4h-1V0h1Zm2 0v4h-1V0h1Z" fill="transparent" fill-rule="evenodd"/></svg>
